!!!OTL: ET SAS E KLI WAELTFIJELTCHEN
!!!ARE: Europa, Mitteleuropa, Deutschland; Rumaenien, Siebenbuergen, Muhlbach
!!!SCT: E0173A
!!!YEM: Copyright 1995, estate of Helmut Schaffrath.
**kern
*ICvox
*Ivox
!! Mixed meters:  3/4; 2/4
*M2/4
*k[b-e-]
*g:
{8d
=1
8.g
16g
4g
4a
=2
8.b-
16a
4.g}
{8g
=3
8dd
8dd
8d
8d
=4
*M3/4
4g
4g
8r}
{8dd
=5
8.dd
16cc
4.b-
8dd
=6
8.cc
16b-
4a
8r}
{8a
=7
8.g
16a
4.b-
8f#
=8
4g
4g
8r}
==
!!!AGN: erzaehlendes Volks - Lied, Sage, Tier - Maerchen
!!!ONB: ESAC (Essen Associative Code) Database: ERK1
!!!AMT: irregular
!!!AIN: vox
!!!EED: Helmut Schaffrath
!!!EEV: 1.0
*-
